icons/PaintRoller_filled.svg

<svg width="24" height="24" viewBox="0 0 24 24" fill="none" xmlns="http://www.w3.org/2000/svg">
<path fill-rule="evenodd" clip-rule="evenodd" d="M4.25,6c0,-1.79493 1.45507,-3.25 3.25,-3.25h9c1.7108,0 3.1129,1.32189 3.2405,3h1.2595c0.9665,0 1.75,0.7835 1.75,1.75v5c0,0.9665 -0.7835,1.75 -1.75,1.75h-8c-0.1381,0 -0.25,0.1119 -0.25,0.25v0.25h0.25c0.9665,0 1.75,0.7835 1.75,1.75v4c0,0.9665 -0.7835,1.75 -1.75,1.75h-2c-0.9665,0 -1.75,-0.7835 -1.75,-1.75v-4c0,-0.9665 0.7835,-1.75 1.75,-1.75h0.25v-0.25c0,-0.9665 0.7835,-1.75 1.75,-1.75h8c0.1381,0 0.25,-0.1119 0.25,-0.25v-5c0,-0.13807 -0.1119,-0.25 -0.25,-0.25h-1.2595c-0.1276,1.67811 -1.5297,3 -3.2405,3h-9c-1.79493,0 -3.25,-1.45507 -3.25,-3.25zM10.75,20.5c0,0.1381 0.1119,0.25 0.25,0.25h2c0.1381,0 0.25,-0.1119 0.25,-0.25v-4c0,-0.1381 -0.1119,-0.25 -0.25,-0.25h-1h-1c-0.1381,0 -0.25,0.1119 -0.25,0.25z" fill="#002B51"/>
</svg>

<svg width="24" height="24" viewBox="0 0 24 24" fill="none" xmlns="http://www.w3.org/2000/svg">
<path fill-rule="evenodd" clip-rule="evenodd" d="M4.25 6C4.25 4.20507 5.70507 2.75 7.5 2.75H16.5C18.2108 2.75 19.6129 4.07189 19.7405 5.75H21C21.9665 5.75 22.75 6.5335 22.75 7.5V12.5C22.75 13.4665 21.9665 14.25 21 14.25H13C12.8619 14.25 12.75 14.3619 12.75 14.5V14.75H13C13.9665 14.75 14.75 15.5335 14.75 16.5V20.5C14.75 21.4665 13.9665 22.25 13 22.25H11C10.0335 22.25 9.25 21.4665 9.25 20.5V16.5C9.25 15.5335 10.0335 14.75 11 14.75H11.25V14.5C11.25 13.5335 12.0335 12.75 13 12.75H21C21.1381 12.75 21.25 12.6381 21.25 12.5V7.5C21.25 7.36193 21.1381 7.25 21 7.25H19.7405C19.6129 8.92811 18.2108 10.25 16.5 10.25H7.5C5.70507 10.25 4.25 8.79493 4.25 7V6ZM10.75 16.5C10.75 16.3619 10.8619 16.25 11 16.25H12H13C13.1381 16.25 13.25 16.3619 13.25 16.5V20.5C13.25 20.6381 13.1381 20.75 13 20.75H11C10.8619 20.75 10.75 20.6381 10.75 20.5V16.5Z" fill="#002B51"/>
</svg>
